X:1

T:While Maureen is far away

L:1/8

M:C

S:Joyce – Old Irish Folk Music

Z:AK/Fiddler’s Companion

K:Dmin

(3A=Bc|d>efe dcAG|F2 F>G A2 d/c/A/F/|G>BAF D2D2|D6 FG|A3G Adde|

f2gf e2f2|edcA c>def|d6 FG|A3G Adde|fefg e3f|d>cAG F2G2|

A4 fe|d2 ed cAAG|F3G Addc|A2 GF D2D2|D6||

 

WHILE THE STARS WERE BRIGHT. Irish, Slow Air (3/4 time). G Major. Standard tuning. AAB. Source for notated version: "(Taken) down from Ned Goggin the professional fiddler of Glenosheen Co. Limerick (1844 to 1850)" {Joyce}. Joyce (Old Irish Folk Music and Songs), 1909; No. 166, pg. 84.

